Sources/FrostedUI/Resources/Icons.xcassets/arrowDownRight12.imageset/arrow-down-right-12.svg

<svg width="12" height="12" viewBox="0 0 12 12" fill="none" xmlns="http://www.w3.org/2000/svg" data-fui-icon="true">
  <path
    d="M1.75684 1.75781C2.04973 1.46492 2.52547 1.46492 2.81836 1.75781L8.90918 7.84863L8.78613 3.54688C8.77431 3.13296 9.09982 2.78841 9.51367 2.77637C9.92772 2.76454 10.2733 3.08986 10.2852 3.50391L10.4619 9.69043C10.4678 9.89668 10.3881 10.0963 10.2422 10.2422C10.0963 10.3881 9.89669 10.4678 9.69043 10.4619L3.50391 10.2852C3.08986 10.2733 2.76356 9.92772 2.77539 9.51367C2.78745 9.09984 3.13298 8.77431 3.54688 8.78613L7.84863 8.90918L1.75684 2.81836C1.46415 2.52561 1.46441 2.05072 1.75684 1.75781Z"
    fill="currentColor"
  />
</svg>

<svg xmlns="http://www.w3.org/2000/svg" width="12" height="12" fill="none" data-fui-icon="true" viewBox="0 0 12 12"><path fill="currentColor" d="M1.757 1.758a.75.75 0 0 1 1.061 0l6.091 6.09-.123-4.301a.75.75 0 1 1 1.5-.043l.176 6.186a.75.75 0 0 1-.772.772l-6.186-.177a.75.75 0 0 1 .043-1.499l4.302.123-6.092-6.09a.75.75 0 0 1 0-1.061"/></svg>
